X:1
T:James Gibb editions
T:Tan largo ha sido - Guerrero
T:#
%%score [ 1 2 3 ]
L:1/8
Q:1/4=108
M:4/4
K:F
V:1 treble nm="Soprano I" snm="S I"
V:2 treble nm="Soprano II" snm="S II"
V:3 treble nm="Alto" snm="A"
V:1
"^Tan largo ha sido""^Francisco Guerrero\n(1528-99)" G4 B2 c2 | A2 d4 c2 | d4 z2 d2 | g2 g2 f2 d2 | %4
w: Tan lar- go~~ha|si- do,~~en gas-|tar, tan|lar- go~~ha si- do,~~en|
w: ||||
w: Tan dul- ce~ha|si- do,~~en a-|mar, tan|dul- ce~~ha si- do~~en|
 g4 f2 d2 |[M:4/4] ^c2 d2 e4 | d4 z2 ff | e2 d2 c2 B2 | (AB c4 =B2) | c2 BB A2 G2 | c2 F2 f4 | %11
w: gas- tar, *|que~~hoy se~~ha da-|do, que, por|dar, es- tá~~em- pe-|ña\- * * *|do, que, por dar, es-|tá~~em- pe- ña-|
w: * * el|||||||
w: a- mar, *|||||||
 e2 c4 c2 | A2 A2 B2 F2 | G8 | z2 c4 c2 | d6 c2 | B4 A4 | G4 z2 dd | c3 B A2 G2 | A4 c2 BB | %20
w: do y no|tie- ne más que-|dar,|y no|tie- ne|más que-|dar, que, por|dar, es- tá~~em- pe-|ña- do, que, por|
w: |||||||||
w: |||||||||
 A2 G2 c4- | c2 F2 f4 | e2 c4 c2 | A2 A2 B2 F2 | G8 | z2 c4 c2 | d6 c2 | B4 A4 | G8- | G8!fine! |] %30
w: dar, es- tá~~em\-|* pe- ña-|do y no|tie- ne más que-|dar,|y no|tie- ne|más que-|dar.||
w: ||||||||||
w: ||||||||||
 d4 f4 | e2 g2 f2 e2 | g4 e2 e2 | f4 d2 f2 | e2 e2 d4 | z2 B2 B2 B2 | (c2 d3 c) B2- | B2 A2 B2 d2 | %38
w: El Hi-|jo de Vir- gen|Ma- dre, des-|pués que se~~e-|na- mo- ró,|en sus a-|mo\- * * res|* gas- tó cuan-|
w: ||||||||
w: ||||||||
 B2 c2 A2 B2- | BA G4 F2 | (GABG A2) A2 | G4 G4!D.C.! |] %42
w: to~~he- re- dó de|* su pa- dre,|de * * * * su|pa- dre.|
w: ||||
w: ||||
V:2
 z8 | z8 | z4 G4 | B2 c2 A2 d2- | d2 ^c2 d2 f2 |[M:4/4] e2 d2 ^c4 | d8 | z8 | z4 z2 ff | %9
w: ||Tan|lar- go~~ha si- do,~~en|* gas- tar, *|que~~hoy se~~ha da-|do,||que, por|
w: ||||* * * el|||||
w: ||Tan|dul- ce~~ha si- do,~~en|* a- mar, *|||||
 e2 d2 c2 B2 | (AB c4 =B2) | c2 e4 e2 | f3 e d2 c2 | B4 B2 B2 | c3 B A2 G2 | F2 AA B2 A2- | %16
w: dar, es- tá~~em- pe-|ña\- * * *|do, y no|tie- ne más que-|dar, y no|tie- ne más que-|dar, y no tie- ne|
w: |||||||
w: |||||||
 A2 G4 ^F2 | G8 | z8 | z2 ff e2 d2 | c2 B2 (A3 G | AB c4 =B2) | c2 e4 e2 | f3 e d2 c2 | B4 B2 B2 | %25
w: * más que-|dar,||que, por dar, es-|tá~~em- pe- ña\- *||do, y no|tie- ne más que-|dar, y no|
w: |||||||||
w: |||||||||
 c3 B A2 G2 | F2 AA B2 A2- | A2 G4 ^F2 | G8- | G8 |] B4 A4 | G2 G2 A2 c2 | =B4 c2 c2 | A4 B2 d2 | %34
w: tie- ne más que-|dar, y no tie- ne|* más que-|dar.||El Hi-|jo de Vir- gen|Ma- dre, des-|pués que se~~e-|
w: |||||||||
w: |||||||||
 d2 ^c2 d4 | z2 d2 d2 e2 | f4 B4 | c4 B4 | z4 z2 d2 | B2 c2 A2 (B2- | BA G4) ^F2 | G4 G4 |] %42
w: na- mo- ró,|en sus a-|mo- res|gas- tó|cuan-|to~~he- re- dó de|* * * su|pa- dre.|
w: ||||||||
w: ||||||||
V:3
 z8 | z8 | z4 G4 | G2 E2 F2 G2 | E4 D2 D2 |[M:4/4] A2 B2 A4 | D8 | z2 BB A2 G2 | F2 E2 D4 | %9
w: ||Tan|lar- go~~ha si- do,~~en|gas- tar, *|que~~hoy se~~ha da-|do,|que, por dar, es-|tá~~em- pe- ña-|
w: ||||* * el|||||
w: ||Tan|dul- ce~~ha si- do,~~en|a- mar, *|||||
 C2 DD F2 G2 | F3 E D4 | C4 C2 C2 | D3 C B,2 A,2 | G,2- G4 G2 | A3 G F2 E2 | D4 z2 FF | %16
w: do, que, por dar, es-|tá~~em- pe- ña-|do y no|tie- ne más que-|dar, y no|tie- ne más que-|dar, y no|
w: |||||||
w: |||||||
 D2 _E2 C2 D2 | G,2 B4 B2 | A3 G F2 E2 | D4 C2 DD | F2 G2 F2 F2 | (F3 E D4) | C4 C2 C2 | %23
w: tie- ne más que-|dar, que, por|dar, es- tá~~em- pe-|ña- do, que, por|dar, es- tá~~em- pe-|ña\- * *|do, y no|
w: |||||||
w: |||||||
 D3 C B,2 A,2 | G,2 G4 G2 | A3 G (F2 E2) | D8- | D8 | G,8- | G,8 |] G4 F4 | C2 E2 F2 A2 | %32
w: tie- ne más que-|dar, y no|tie- ne más *|que\-||dar.||El Hi-|jo de Vir- gen|
w: |||||||||
w: |||||||||
 G4 C2 C2 | D4 G2 F2 | G2 A2 D4 | z2 G2 G2 G2 | A2 B2 G4 | F4 z2 B2 | G2 A2 ^F2 G2 | G2 C2 D4 | %40
w: Ma- dre, des-|pués que se~~e-|na- mo- ró,|en sus a-|mo- res gas-|tó cuan-|to~he- re- dó, cuan-|to~~he- re- dó|
w: ||||||||
w: ||||||||
 _E4 D4 | G,4 G,4 |] %42
w: de su|pa- dre.|
w: ||
w: ||

